X:5
T:Turkish March. JClw.05
M:2/4
L:1/8
Q:1/4=100
S:J.Clews MS,Stoke-upon-Tern,Shrops.1832
A:N. Shropshire
N:A counter melody has been erased in the MS.
N:Finish at end of A part i.e play AABA. NeilB.
Z:Neil Brookes 2006
K:D
a>gff|f>edd|edec|d/2e/2f/2e/2 d/2e/2f/2g/2|!
a>gff|f>edd|edec|d2d2″fine”:|!
e2f2|{a}gg/2f/2 ee|f2g2|{b}aa/2g/2 fa|!
aggf|aggf|ab/2a/2 gf|f2e2″D.C”|]

